svg/convector.svg

<svg width="24" height="24" viewBox="0 0 24 24" fill="none" xmlns="http://www.w3.org/2000/svg">
<style>path{fill:#000}@media (prefers-color-scheme:dark){path{fill:#fff}}</style>
<path fill-rule="evenodd" clip-rule="evenodd" d="M4.35544 3.29749L4.11385 3.70358L4.37585 4.0968L5.12357 5.21904L4.34284 6.63856L5.65716 7.36144L6.65716 5.54326L6.87643 5.1446L6.62415 4.76596L5.88615 3.65831L6.64456 2.38345L5.35544 1.61655L4.35544 3.29749ZM10.3554 3.29749L10.1139 3.70358L10.3759 4.0968L11.1236 5.21904L10.3428 6.63856L11.6572 7.36144L12.6572 5.54326L12.8764 5.1446L12.6241 4.76596L11.8861 3.65831L12.6446 2.38345L11.3554 1.61655L10.3554 3.29749ZM16.1139 3.70358L16.3554 3.29749L17.3554 1.61655L18.6446 2.38345L17.8861 3.65831L18.6241 4.76596L18.8764 5.1446L18.6572 5.54326L17.6572 7.36144L16.3428 6.63856L17.1236 5.21904L16.3759 4.0968L16.1139 3.70358ZM2 10C2 9.44771 2.44772 9 3 9H21C21.5523 9 22 9.44772 22 10V20C22 20.5523 21.5523 21 21 21V22H20V21H4V22H3L3 21C2.44772 21 2 20.5523 2 20V10ZM11 10H3V11H11V10ZM21 10H13V11H21V10ZM13 12H20V13H13V12ZM11 12H4V13H11V12ZM13 14H19V15H13V14ZM11 14H5V15H11V14Z"/>
</svg>

<svg width="24" height="24" fill="none" xmlns="http://www.w3.org/2000/svg"><style>path{fill:#000}@media (prefers-color-scheme:dark){path{fill:#fff}}</style><path fill-rule="evenodd" clip-rule="evenodd" d="m4.355 3.297-.241.407.262.393.748 1.122-.781 1.42 1.314.722 1-1.818.22-.398-.253-.379-.738-1.108.759-1.275-1.29-.766-1 1.68zm6 0-.241.407.262.393.748 1.122-.781 1.42 1.314.722 1-1.818.22-.398-.253-.379-.738-1.108.759-1.275-1.29-.766-1 1.68zm5.759.407.241-.407 1-1.68 1.29.766-.759 1.275.738 1.108.252.379-.219.398-1 1.818-1.314-.722.78-1.42-.747-1.122-.262-.393zM3 9a1 1 0 0 0-1 1v10a1 1 0 0 0 1 1v1h1v-1h16v1h1v-1a1 1 0 0 0 1-1V10a1 1 0 0 0-1-1H3zm18 1h-8v1h8v-1zM3 10h8v1H3v-1zm17 2h-7v1h7v-1zM4 12h7v1H4v-1zm15 2h-6v1h6v-1zM5 14h6v1H5v-1z"/></svg>
